X:1
T:Title
%%score { ( 1 3 ) | 2 }
L:1/8
Q:1/4=100
M:6/8
K:Bb
V:1 treble nm="Grand Piano"
V:3 treble 
V:2 bass 
V:1
 [DF][B,D][CE] [DF][Fd][DB] | [DF]3 D3 | FED EGF | D3 [DF]3 | GGG [GB][FA][EG] | [DF]3 [DB]3 | %6
w: U.~S.~Amstutz * * * * *||||||
 [Fd][Fd]d dcB | c6 | [Fd][Ec][DB] [DF][Fd][DB] | [DF]3 D3 | FED EGF | D3 [DF]3 | %12
w: ||||||
 GGG [GB][FA][EG] | [DF]3 [DB]3 | AGF AGF | [DB]6 | G3 [B,GB][B,FA][B,EG] | [DF]3 z3 | %18
w: ||||||
 c3 [ce][Bd][Ac] | [Bd]6 | .[Bd]6 | [GB]3 z3 |[M:13/16] FFFFd3/2c |[M:3/4] [DB]6 |] %24
w: ||||||
V:2
 [B,,B,][B,,F,][B,,F,] [B,,B,][B,,B,][B,,B,] | [B,,B,]3 [B,,F,B,]3 | %2
 [F,D][F,C][F,B,] [F,C][F,E][F,D] | [B,,F,B,]3 [B,,B,]3 | %4
 [E,B,E][E,B,E][E,B,E] [E,B,][E,B,][E,B,] | [B,,B,]3 [B,,B,]3 | %6
 [B,,B,][D,B,][K:treble][F,B,F] [B,F][A,CF][G,C=E] | [F,A,F]6 | %8
 [B,,B,][B,,F,][B,,F,] [B,,B,][B,,B,][B,,B,] | [B,,B,]3 [B,,F,B,]3 | %10
 [F,D][F,C][F,B,] [F,C][F,E][F,D] | [B,,F,B,]3 [B,,B,]3 | %12
 [E,B,E][E,B,E][E,B,E] [E,B,][E,B,][E,B,] | [B,,B,]3 [B,,F,]3 | [F,E][F,E][F,E] [F,E][F,E][F,E] | %15
 [B,,F,]6 | E3 E,E,E, | B,,B,,B,, .[B,,B,]3 | A3 [F,A,][F,B,][F,C] | [B,,B,]B,,B,, B,,3 | %20
 D,3 B,,[C,F,]D, | E,E,E, [E,B,E]3 |[M:13/16] [F,A,][F,A,][F,A,][F,A,][F,B,F]3/2[F,A,E] | %23
[M:3/4] [B,,B,]6 |] %24
V:3
 x6 | x6 | x6 | x6 | x6 | x6 | x6 | x6 | x6 | x6 | x6 | x6 | x6 | x6 | x6 | x6 | x6 | %17
 B,B,B, [Fd]3 | x6 | z B,B, B,3 | z3 F,[Ac][B,_AB] | B,B,B, G3 |[M:13/16] x13/2 |[M:3/4] x6 |] %24

